packages/core/src/svgs/networks/branded/ethereum-classic.svg

<svg width="24" height="24" viewBox="0 0 24 24" fill="none" xmlns="http://www.w3.org/2000/svg">
<path d="M5.975 10.9585L12.0585 8.47501L17.9415 11.025L12.0415 2L5.975 10.9585ZM5.9915 13.7165L12.0585 17.1335L18.2501 13.7165L12.1165 22L5.9915 13.7165ZM12.075 9.69153L18.2335 12.35L12.075 15.6835L5.75 12.275L12.0835 9.69153H12.075Z" fill="#01C853"/>
</svg>

<svg xmlns="http://www.w3.org/2000/svg" width="24" height="24" fill="none" viewBox="0 0 24 24">
    <path fill="#01C853" d="m5.975 10.959 6.084-2.484 5.883 2.55L12.042 2zm.017 2.758 6.067 3.417 6.191-3.418L12.117 22zm6.083-4.025 6.159 2.658-6.159 3.334-6.325-3.409 6.334-2.583z"/>
</svg>
